Sources/FrostedUI/Resources/Icons.xcassets/play20.imageset/play-20.svg

<svg width="20" height="20" viewBox="0 0 20 20" fill="none" xmlns="http://www.w3.org/2000/svg" data-fui-icon="true">
  <path
    d="M4.04199 3.89636C4.04237 1.98145 6.16367 0.827684 7.77148 1.86804L17.2031 7.97058C18.6747 8.92288 18.6746 11.0769 17.2031 12.0292L7.77148 18.1317C6.16364 19.172 4.04228 18.0184 4.04199 16.1034V3.89636ZM6.95703 3.12683C6.34727 2.73227 5.54237 3.1702 5.54199 3.89636V16.1034C5.54228 16.8296 6.34722 17.2675 6.95703 16.8729L16.3887 10.7694C16.9116 10.4309 16.9446 9.69235 16.4873 9.30359L16.3887 9.23035L6.95703 3.12683Z"
    fill="currentColor"
  />
</svg>

<svg xmlns="http://www.w3.org/2000/svg" width="20" height="20" fill="none" data-fui-icon="true" viewBox="0 0 20 20"><path fill="currentColor" d="M4.042 3.896c0-1.915 2.122-3.068 3.73-2.028l9.431 6.103c1.472.952 1.472 3.106 0 4.058l-9.432 6.103c-1.607 1.04-3.729-.114-3.729-2.029zm2.915-.77a.917.917 0 0 0-1.415.77v12.207a.917.917 0 0 0 1.415.77l9.432-6.104a.917.917 0 0 0 .098-1.465l-.098-.074z"/></svg>
